static/assets/img/icons/theme/tools/brush.svg

<svg height="24" viewBox="0 0 24 24" width="24" xmlns="http://www.w3.org/2000/svg"><g fill="none" fill-rule="evenodd"><path d="m0 0h24v24h-24z" opacity="0"/><g fill="#000"><path d="m16.0576695 5.11553395 2.1213204 2.12132034-2.4748738 4.59619411 4.5961941-2.47487376 1.767767 1.76776696c.1952621.1952621.1952621.5118446 0 .7071068l-5.3033009 5.3033008-9.89949493-9.89949491 5.30330083-5.30330086c.1952622-.19526214.5118447-.19526214.7071068 0l1.767767 1.76776696-.7071068 2.12132034z" opacity=".3"/><path d="m10.1599151 16.1883423-3.29155781 4.7021933c-.63343193.9048966-1.88049356 1.1249622-2.78539011.4915302-.09545674-.0668201-.18489148-.1418544-.26728361-.2242466l-.9579721-.9579721c-.78104858-.7810485-.78104858-2.0473785 0-2.8284271.08622036-.0862203.18014493-.1643752.28060036-.2334882l4.72228014-3.2489127-3.11663094-3.1166309c-.3905243-.3905243-.3905243-1.02368927 0-1.41421356l1.41421356-1.41421357 9.89949491 9.89949493-1.4142135 1.4142136c-.3905243.3905243-1.0236893.3905243-1.4142136 0zm-5.41595407 3.0693273c.39052429.3905243 1.02368927.3905243 1.41421356 0s.39052429-1.0236893 0-1.4142136-1.02368927-.3905243-1.41421356 0c-.3905243.3905243-.3905243 1.0236893 0 1.4142136z"/></g></g></svg>

<svg width="24px" height="24px" viewBox="0 0 24 24" version="1.1" xmlns="http://www.w3.org/2000/svg" xmlns:xlink="http://www.w3.org/1999/xlink">
    <title>Icon For Brush</title>
    <g stroke="none" stroke-width="1" fill="none" fill-rule="evenodd">
        <rect opacity="0" x="0" y="0" width="24" height="24"></rect>
        <path d="M16.0576695,5.11553395 L18.1789899,7.23685429 L15.7041161,11.8330484 L20.3003102,9.35817464 L22.0680772,11.1259416 C22.2633393,11.3212037 22.2633393,11.6377862 22.0680772,11.8330484 L16.7647763,17.1363492 L6.86528137,7.23685429 L12.1685822,1.93355343 C12.3638444,1.73829129 12.6804269,1.73829129 12.875689,1.93355343 L14.643456,3.70132039 L13.9363492,5.82264073 L16.0576695,5.11553395 Z" fill="#000000" opacity="0.3"></path>
        <path d="M10.1599151,16.1883423 L6.86835729,20.8905356 C6.23492536,21.7954322 4.98786373,22.0154978 4.08296718,21.3820658 C3.98751044,21.3152457 3.8980757,21.2402114 3.81568357,21.1578192 L2.85771147,20.1998471 C2.07666289,19.4187986 2.07666289,18.1524686 2.85771147,17.37142 C2.94393183,17.2851997 3.0378564,17.2070448 3.13831183,17.1379318 L7.86059197,13.8890191 L4.74396103,10.7723882 C4.35343673,10.3818639 4.35343673,9.74869893 4.74396103,9.35817464 L6.15817459,7.94396107 L16.0576695,17.843456 L14.643456,19.2576696 C14.2529317,19.6481939 13.6197667,19.6481939 13.2292424,19.2576696 L10.1599151,16.1883423 Z M4.74396103,19.2576696 C5.13448532,19.6481939 5.7676503,19.6481939 6.15817459,19.2576696 C6.54869888,18.8671453 6.54869888,18.2339803 6.15817459,17.843456 C5.7676503,17.4529317 5.13448532,17.4529317 4.74396103,17.843456 C4.35343673,18.2339803 4.35343673,18.8671453 4.74396103,19.2576696 Z" fill="#000000"></path>
    </g>
</svg>
